img/icons/logo.svg

<svg width="185" height="40" viewBox="0 0 185 40" fill="none" xmlns="http://www.w3.org/2000/svg">
<path fill-rule="evenodd" clip-rule="evenodd" d="M20.5626 6.44336L32.2091 13.1679V26.6153L20.5626 33.3399L8.91602 26.6153V13.1679L20.5626 6.44336ZM20.5626 9.45866L29.598 14.6756V25.1077L20.5626 30.3246L11.5271 25.1077V14.6756L20.5626 9.45866Z" fill="white"/>
<path fill-rule="evenodd" clip-rule="evenodd" d="M5.88757 14.4355V28.3635L20.5598 36.8351L35.2321 28.3635V14.4355L37.7859 15.9102V29.8382L20.5598 39.7845L3.33203 29.8382V15.9102L5.88757 14.4355Z" fill="white"/>
<path fill-rule="evenodd" clip-rule="evenodd" d="M20.564 0L41.1281 11.8721L39.8512 14.0841L20.564 2.94937L1.2769 14.0841L0 11.8721L20.564 0Z" fill="#F4A062"/>
<path d="M17.1554 23.7603H19.3535V17.9899C19.3535 17.7071 19.3622 17.4122 19.3778 17.1034L18.0836 18.179C18.0003 18.2467 17.9153 18.2953 17.832 18.3248C17.7487 18.3543 17.6672 18.3682 17.5891 18.3682C17.4538 18.3682 17.3306 18.3387 17.2248 18.2779C17.1172 18.2172 17.0374 18.153 16.9854 18.0854L16.2168 17.0652L19.7786 14.0742H21.7876V23.7603H23.6718V25.5195H17.1571V23.7603H17.1554Z" fill="#F4A062"/>
<path d="M52.3948 17.1926V13.3386L53.2156 12.5023L57.103 17.1926H60.4485L55.1337 10.7961L60.1206 5.71094H56.8086L52.3948 10.1894V5.71094H49.8545V17.1926H52.3948Z" fill="white"/>
<path d="M64.0582 13.584H66.2729C67.9479 13.584 69.1768 13.207 69.9641 12.4353C70.7514 11.6815 71.1439 10.7626 71.1439 9.66306C71.1439 8.62819 70.8807 7.77621 70.1938 6.98891C69.5046 6.20161 68.1285 5.71094 66.2729 5.71094H61.5156V17.1926H64.056V13.584H64.0582ZM66.3398 8.08623C67.7851 8.08623 68.5054 8.61258 68.5054 9.64522C68.5054 10.6801 67.7494 11.2042 66.2394 11.2042H64.056V8.084H66.3398V8.08623Z" fill="white"/>
<path d="M81.7123 17.1926V14.8151H75.3314V12.5179H81.1547V10.2229H75.3314V8.08623H81.5651V5.71094H72.791V17.1926H81.7123Z" fill="white"/>
<path d="M84.9495 19.1126V17.1923H92.3185V19.1126H94.696V14.8171H93.3667V5.71289H85.0186V7.089C85.0186 10.5505 84.6239 13.1265 83.821 14.8171H82.5742V19.1126H84.9495ZM90.8242 8.08595V14.8148H86.4416C87.0326 13.4365 87.3605 11.4024 87.4252 8.72605L87.4408 8.08595H90.8242Z" fill="white"/>
<path d="M103.762 10.1894V17.1926H106.305V5.71094H104.19L98.6255 12.7476V5.71094H96.0852V17.1926H98.1661L103.762 10.1894Z" fill="white"/>
<path d="M111.212 8.08623V17.1926H113.752V8.08623H117.443V5.71094H107.536V8.08623H111.212Z" fill="white"/>
<path d="M128.864 17.1926V5.71094H126.323V10.2229H121.218V5.71094H118.678V17.1926H121.218V12.5982H126.323V17.1926H128.864Z" fill="white"/>
<path d="M132.654 17.1926L133.588 15.0604H138.395L139.329 17.1926H141.985L136.949 5.71094H135.062L130.026 17.1926H132.654ZM137.46 12.9126H134.474L135.984 9.48464L137.46 12.9126Z" fill="white"/>
<path d="M152.518 17.1926V5.71094H147.712C146.153 5.71094 144.97 6.07225 144.152 6.79264C143.316 7.51304 142.905 8.44977 142.905 9.58277C142.905 11.2734 143.806 12.4197 145.463 12.9282L142.087 17.1926H145.086L148.024 13.4033H149.978V17.1926H152.518ZM147.466 11.0258C146.333 11.0258 145.546 10.4013 145.546 9.56493C145.546 8.57913 146.219 8.08846 147.564 8.08846H149.978V11.028H147.466V11.0258Z" fill="white"/>
<path d="M52.3948 36.0051V32.1511L53.2156 31.3148L57.103 36.0051H60.4485L55.1337 29.6086L60.1206 24.5234H56.8086L52.3948 29.0019V24.5234H49.8545V36.0051H52.3948Z" fill="white"/>
<path d="M60.2048 30.2633C60.2048 31.9539 60.778 33.3657 61.9266 34.4964C63.0753 35.6272 64.4692 36.2004 66.1263 36.2004C67.7835 36.2004 69.1796 35.6272 70.326 34.4964C71.4568 33.3657 72.03 31.9539 72.03 30.2633C72.03 28.5727 71.4568 27.1453 70.326 26.0145C69.1774 24.8837 67.7835 24.3262 66.1263 24.3262C64.4692 24.3262 63.0574 24.8994 61.9266 26.048C60.778 27.1966 60.2048 28.6062 60.2048 30.2633ZM63.8135 27.7542C64.4536 27.1141 65.2253 26.7862 66.1286 26.7862C66.9984 26.7862 67.7701 27.1141 68.4258 27.7542C69.0659 28.3943 69.3937 29.2306 69.3937 30.2655C69.3937 31.2981 69.0815 32.1367 68.4592 32.7768C67.8348 33.4169 67.0631 33.7448 66.1286 33.7448C65.2253 33.7448 64.4536 33.4169 63.8135 32.7768C63.1734 32.1367 62.8455 31.3004 62.8455 30.2655C62.8433 29.2306 63.1734 28.3943 63.8135 27.7542Z" fill="white"/>
<path d="M83.9381 36.0051V24.5234H81.3977V29.0354H76.2925V24.5234H73.7522V36.0051H76.2925V31.4129H81.3977V36.0051H83.9381Z" fill="white"/>
<path d="M94.9216 32.217C94.1164 33.2341 93.0503 33.7426 91.7545 33.7426C90.7531 33.7426 89.9346 33.4147 89.2945 32.7746C88.6388 32.1345 88.3109 31.2981 88.3109 30.2633C88.3109 29.1972 88.6388 28.3586 89.2789 27.7185C89.919 27.094 90.7553 26.784 91.788 26.784C92.7715 26.784 93.8711 27.2434 94.5268 28.0798L96.2486 26.5052C95.4122 25.1938 93.657 24.3262 91.6051 24.3262C89.8498 24.3262 88.4224 24.8994 87.3229 26.0301C86.2255 27.1787 85.668 28.5905 85.668 30.2633C85.668 32.052 86.2077 33.4794 87.2738 34.5611C88.3399 35.6584 89.7495 36.2004 91.5382 36.2004C93.5901 36.2004 95.3944 35.3484 96.427 33.8407L94.9216 32.217Z" fill="white"/>
<path d="M103.077 30.2328L99.5848 24.5254H96.4355L101.784 32.9426C101.57 33.4021 101.291 33.6318 100.963 33.6318C100.684 33.6318 100.439 33.4846 100.258 33.2058L98.619 34.6979C99.2101 35.5677 99.9795 36.0093 100.932 36.0093C102.457 36.0093 103.343 35.1573 104.213 33.3218L108.379 24.5276H105.723L103.077 30.2328Z" fill="white"/>
<path d="M118.609 36.0051V24.5234H109.998L109.982 25.8193C109.949 28.2614 109.851 30.0346 109.703 31.1653C109.538 32.2983 109.309 33.0053 109.014 33.2997C108.72 33.612 108.26 33.7257 107.62 33.6432V36.0029C107.834 36.0363 108.046 36.052 108.276 36.052C109.327 36.052 109.9 35.9538 110.622 35.3628C111.655 34.5264 112.146 32.5905 112.409 28.3083L112.474 26.979H116.069V36.0029H118.609V36.0051Z" fill="white"/>
<path d="M125.594 30.7064C127.07 30.7064 127.809 31.1815 127.809 32.1338C127.809 33.1352 127.053 33.6281 125.543 33.6281H123.457V30.7064H125.594ZM120.901 24.5218V36.0034H125.494C128.643 36.0034 130.447 34.6429 130.447 32.1316C130.447 29.589 128.841 28.3267 125.625 28.3267H123.46V24.5195H120.901V24.5218Z" fill="white"/>
<path d="M132.759 26.901V36.0051H135.299V26.901H138.99V24.5234H129.083V26.901H132.759Z" fill="white"/>
<path d="M140.17 36.0051L141.105 33.8729H145.911L146.845 36.0051H149.502L144.466 24.5234H142.579L137.543 36.0051H140.17ZM144.976 31.7274H141.99L143.5 28.2994L144.976 31.7274Z" fill="white"/>
<path d="M159.361 36.0051V37.9254H161.72V33.6298H160.393V24.5234H157.851V33.6298H153.207V24.5234H150.667V36.0051H159.361Z" fill="white"/>
<path d="M170.798 29.0019V36.0051H173.338V24.5234H171.224L165.661 31.5601V24.5234H163.121V36.0051H165.202L170.798 29.0019Z" fill="white"/>
<path d="M184.997 36.0051V24.5234H180.19C178.631 24.5234 177.449 24.8848 176.631 25.6051C175.794 26.3255 175.384 27.26 175.384 28.393C175.384 30.0836 176.285 31.2322 177.942 31.7385L174.565 36.0051H177.565L180.503 32.2158H182.456V36.0051H184.997ZM179.945 29.8405C178.812 29.8405 178.025 29.216 178.025 28.3797C178.025 27.3939 178.698 26.9032 180.043 26.9032H182.456V29.8427H179.945V29.8405Z" fill="white"/>
<path d="M171.728 5.71094H169.286V12.6985L163.984 5.71094H162.051V17.1926H164.477V10.2385L169.794 17.1926H171.728V5.71094ZM172.355 9.35082C172.355 10.2541 172.649 10.9745 173.225 11.5499C173.8 12.1253 174.552 12.4019 175.488 12.4019C176.425 12.4019 177.195 12.1231 177.768 11.5499C178.341 10.9767 178.638 10.2541 178.638 9.35082C178.638 7.52865 177.393 6.31758 175.488 6.31758C173.599 6.31758 172.355 7.53088 172.355 9.35082ZM174.813 8.62819C174.978 8.44754 175.207 8.36501 175.486 8.36501C176.028 8.36501 176.423 8.75978 176.423 9.35082C176.423 9.99092 176.077 10.3522 175.486 10.3522C175.223 10.3522 175.009 10.2541 174.828 10.0734C174.485 9.71213 174.485 8.97389 174.813 8.62819ZM178.325 15.2076V13.0777H172.667V15.2076H178.325Z" fill="white"/>
<path d="M180.491 9.66306L182.543 8.72856V17.1926H185V5.71094H183.395L179.623 7.59779L180.491 9.66306Z" fill="white"/>
</svg>

<svg width="185" height="40" fill="none" xmlns="http://www.w3.org/2000/svg"><path fill-rule="evenodd" clip-rule="evenodd" d="M20.563 6.443l11.646 6.725v13.447L20.563 33.34 8.916 26.615V13.168l11.647-6.725zm0 3.016l9.035 5.217v10.432l-9.035 5.217-9.036-5.217V14.676l9.036-5.217z" fill="#fff"/><path fill-rule="evenodd" clip-rule="evenodd" d="M5.888 14.435v13.928l14.672 8.472 14.672-8.472V14.435l2.554 1.475v13.928L20.56 39.785 3.332 29.838V15.91l2.556-1.475z" fill="#fff"/><path fill-rule="evenodd" clip-rule="evenodd" d="M20.564 0l20.564 11.872-1.277 2.212L20.564 2.95 1.277 14.084 0 11.872 20.564 0z" fill="#F4A062"/><path d="M17.155 23.76h2.198v-5.77c0-.283.01-.578.025-.887l-1.294 1.076a.857.857 0 01-.252.146.726.726 0 01-.243.043.722.722 0 01-.364-.09.783.783 0 01-.24-.193l-.768-1.02 3.562-2.99h2.009v9.685h1.884v1.76h-6.515v-1.76h-.002z" fill="#F4A062"/><path d="M52.395 17.193v-3.854l.82-.837 3.888 4.69h3.346l-5.315-6.396 4.987-5.085h-3.312l-4.414 4.478V5.711h-2.54v11.482h2.54zm11.663-3.609h2.215c1.675 0 2.904-.377 3.691-1.149.787-.754 1.18-1.672 1.18-2.772 0-1.035-.263-1.887-.95-2.674-.69-.787-2.066-1.278-3.921-1.278h-4.757v11.482h2.54v-3.609h.002zm2.282-5.498c1.445 0 2.165.527 2.165 1.56 0 1.034-.756 1.558-2.266 1.558h-2.183v-3.12h2.284v.002zm15.372 9.107v-2.378h-6.38v-2.297h5.823v-2.295H75.33V8.086h6.234V5.711H72.79v11.482h8.921zm3.238 1.92v-1.92h7.368v1.92h2.378v-4.296h-1.33V5.713H85.02v1.376c0 3.461-.395 6.037-1.198 7.728h-1.247v4.296h2.376zm5.874-11.027v6.729h-4.382c.59-1.378.919-3.413.983-6.089l.016-.64h3.383zm12.938 2.104v7.003h2.543V5.71h-2.115l-5.564 7.037V5.71h-2.54v11.482h2.08l5.596-7.004zm7.45-2.104v9.107h2.54V8.086h3.691V5.711h-9.907v2.375h3.676zm17.652 9.107V5.71h-2.541v4.512h-5.105V5.71h-2.54v11.482h2.54v-4.595h5.105v4.595h2.541zm3.79 0l.934-2.133h4.807l.934 2.133h2.656L136.949 5.71h-1.887l-5.036 11.482h2.628zm4.806-4.28h-2.986l1.51-3.428 1.476 3.428zm15.058 4.28V5.71h-4.806c-1.559 0-2.742.361-3.56 1.082-.836.72-1.247 1.657-1.247 2.79 0 1.69.901 2.837 2.558 3.345l-3.376 4.265h2.999l2.938-3.79h1.954v3.79h2.54zm-5.052-6.167c-1.133 0-1.92-.625-1.92-1.461 0-.986.673-1.477 2.018-1.477h2.414v2.94h-2.512v-.002zM52.395 36.005v-3.854l.82-.836 3.888 4.69h3.346l-5.315-6.396 4.987-5.086h-3.312l-4.414 4.479v-4.479h-2.54v11.482h2.54z" fill="#fff"/><path d="M60.205 30.263c0 1.69.573 3.103 1.722 4.233 1.148 1.131 2.542 1.704 4.2 1.704 1.657 0 3.053-.573 4.199-1.704 1.13-1.13 1.704-2.542 1.704-4.233 0-1.69-.573-3.118-1.704-4.248-1.149-1.131-2.542-1.689-4.2-1.689-1.657 0-3.069.573-4.2 1.722-1.148 1.149-1.721 2.558-1.721 4.215zm3.608-2.509c.64-.64 1.412-.968 2.316-.968.87 0 1.641.328 2.297.968.64.64.968 1.477.968 2.511 0 1.033-.313 1.872-.935 2.512-.624.64-1.396.968-2.33.968-.904 0-1.675-.328-2.316-.968-.64-.64-.968-1.477-.968-2.512-.002-1.034.328-1.87.968-2.51zm20.125 8.251V24.523h-2.54v4.512h-5.105v-4.512h-2.54v11.482h2.54v-4.592h5.105v4.592h2.54zm10.984-3.788c-.806 1.017-1.872 1.526-3.168 1.526-1 0-1.82-.328-2.46-.968-.655-.64-.983-1.477-.983-2.512 0-1.066.328-1.904.968-2.545.64-.624 1.476-.934 2.509-.934.984 0 2.083.46 2.739 1.296l1.722-1.575c-.837-1.311-2.592-2.179-4.644-2.179-1.755 0-3.183.573-4.282 1.704-1.097 1.149-1.655 2.56-1.655 4.233 0 1.789.54 3.216 1.606 4.298 1.066 1.097 2.475 1.64 4.264 1.64 2.052 0 3.856-.853 4.889-2.36l-1.505-1.624zm8.155-1.984l-3.492-5.708h-3.15l5.349 8.418c-.214.46-.493.689-.821.689-.279 0-.524-.147-.705-.426l-1.639 1.492c.591.87 1.36 1.311 2.313 1.311 1.525 0 2.411-.852 3.281-2.687l4.166-8.794h-2.656l-2.646 5.705zm15.532 5.772V24.523h-8.611l-.016 1.296c-.033 2.442-.131 4.216-.279 5.346-.165 1.133-.394 1.84-.689 2.135-.294.312-.754.426-1.394.343v2.36c.214.033.426.049.656.049 1.051 0 1.624-.098 2.346-.69 1.033-.836 1.524-2.772 1.787-7.054l.065-1.329h3.595v9.024h2.54v.002zm6.985-5.299c1.476 0 2.215.476 2.215 1.428 0 1.001-.756 1.494-2.266 1.494h-2.086v-2.922h2.137zm-4.693-6.184v11.481h4.593c3.149 0 4.953-1.36 4.953-3.871 0-2.543-1.606-3.805-4.822-3.805h-2.165v-3.808h-2.559v.003zm11.858 2.379v9.104h2.54v-9.104h3.691v-2.378h-9.907v2.378h3.676zm7.411 9.104l.935-2.132h4.806l.934 2.132h2.657l-5.036-11.482h-1.887l-5.036 11.482h2.627zm4.806-4.278h-2.986l1.51-3.428 1.476 3.428zm14.385 4.278v1.92h2.359V33.63h-1.327v-9.107h-2.542v9.107h-4.644v-9.107h-2.54v11.482h8.694zm11.437-7.003v7.003h2.54V24.523h-2.114l-5.563 7.037v-7.037h-2.54v11.482h2.081l5.596-7.003zm14.199 7.003V24.523h-4.807c-1.559 0-2.741.362-3.559 1.082-.837.72-1.247 1.655-1.247 2.788 0 1.69.901 2.84 2.558 3.345l-3.377 4.267h3l2.938-3.79h1.953v3.79h2.541zm-5.052-6.165c-1.133 0-1.92-.624-1.92-1.46 0-.986.673-1.477 2.018-1.477h2.413v2.94h-2.511v-.003zm-8.217-24.13h-2.442v6.988l-5.302-6.987h-1.933v11.482h2.426v-6.955l5.317 6.955h1.934V5.71zm.627 3.64c0 .904.294 1.625.87 2.2.575.575 1.327.852 2.263.852.937 0 1.707-.279 2.28-.852.573-.573.87-1.296.87-2.2 0-1.821-1.245-3.032-3.15-3.032-1.889 0-3.133 1.213-3.133 3.033zm2.458-.722c.165-.18.394-.263.673-.263.542 0 .937.395.937.986 0 .64-.346 1.001-.937 1.001a.895.895 0 01-.658-.279c-.343-.36-.343-1.1-.015-1.445zm3.512 6.58v-2.13h-5.658v2.13h5.658zm2.166-5.545l2.052-.934v8.464H185V5.71h-1.605l-3.772 1.887.868 2.065z" fill="#fff"/></svg>
